projects/vfh1/img/icons/phone-footer.svg

<svg width="47" height="37" viewBox="0 0 47 37" fill="none" xmlns="http://www.w3.org/2000/svg">
<rect x="0.5" y="0.5" width="46" height="36" rx="5.5" stroke="#FFFEDA"/>
<path d="M26.8545 7.95837H19.1878C18.5524 7.95837 17.943 8.21079 17.4937 8.6601C17.0444 9.1094 16.792 9.71879 16.792 10.3542V26.6459C16.792 27.2813 17.0444 27.8907 17.4937 28.34C17.943 28.7893 18.5524 29.0417 19.1878 29.0417H26.8545C27.4899 29.0417 28.0993 28.7893 28.5486 28.34C28.9979 27.8907 29.2503 27.2813 29.2503 26.6459V10.3542C29.2503 9.71879 28.9979 9.1094 28.5486 8.6601C28.0993 8.21079 27.4899 7.95837 26.8545 7.95837ZM23.0212 28.0834C22.2257 28.0834 21.5837 27.4413 21.5837 26.6459C21.5837 25.8505 22.2257 25.2084 23.0212 25.2084C23.8166 25.2084 24.4587 25.8505 24.4587 26.6459C24.4587 27.4413 23.8166 28.0834 23.0212 28.0834ZM27.3337 24.25H18.7087V10.8334H27.3337V24.25Z" fill="#FFFEDA"/>
</svg>

<svg width="47" height="37" fill="none" xmlns="http://www.w3.org/2000/svg"><rect x=".5" y=".5" width="46" height="36" rx="5.5" stroke="#FFFEDA"/><path d="M26.855 7.958h-7.667a2.396 2.396 0 00-2.396 2.396v16.292a2.396 2.396 0 002.396 2.396h7.667a2.396 2.396 0 002.395-2.396V10.354a2.396 2.396 0 00-2.395-2.396zM23.02 28.083a1.436 1.436 0 01-1.437-1.437c0-.796.642-1.438 1.437-1.438.796 0 1.438.643 1.438 1.438 0 .795-.642 1.437-1.438 1.437zm4.313-3.833h-8.625V10.833h8.625V24.25z" fill="#FFFEDA"/></svg>
